icons/headphones.svg

<?xml version="1.0" standalone="no"?><!-- Generator: Gravit.io --><svg xmlns="http://www.w3.org/2000/svg" xmlns:xlink="http://www.w3.org/1999/xlink" width="96" height="96"><path d=" M 76.72784996358 57.99131468044904 C 76.57214389026566 56.94728944692599 76.36466217692701 55.91215450573897 76.1 54.891314680449035 C 74.4 46.49131468044904 71 38.49131468044904 66.1 31.491314680449037 C 61.9 25.691314680449036 55.2 22.191314680449036 48 21.991314680449037 L 48.1 21.991314680449037 C 48.1 21.991314680449037 48 21.991314680449037 48 21.991314680449037 C 40.8 22.191314680449036 34.1 25.691314680449036 29.9 31.491314680449037 C 25 38.49131468044904 21.6 46.49131468044904 19.9 54.891314680449035 C 19.63533782307298 55.91215450573897 19.42785610973433 56.94728944692599 19.27215003642 57.99131468044904 L 24 57.99131468044904 C 26.1 57.99131468044904 28.2 58.791314680449034 29.7 60.291314680449034 C 31.2 61.791314680449034 32 63.89131468044904 32 65.99131468044904 L 32 73.99131468044904 C 32 76.09131468044903 31.2 78.19131468044904 29.7 79.69131468044904 C 28.2 81.19131468044904 26.1 81.99131468044904 24 81.99131468044904 L 16.6 81.99131468044904 C 16.348501546790374 82.01417817619537 16.10223048795817 82.016132094432 15.86417488399 81.98716734865904 C 15.717654635669174 81.98779591226125 15.383682800128321 81.94785193485717 15.36260302198 81.93485863648904 C 14.804532956231975 81.86057497128235 14.288744737539727 81.6659525450616 13.84833743842 81.34851911394904 C 13.76486993132565 81.2981827189843 12.902012622374261 80.50842659400604 12.87716854725 80.47012286098904 C 12.809844673053197 80.3908840024475 12.34796215014324 79.62378119249202 12.33107142857 79.57917182330904 C 12.25954087174131 79.43407735064199 12.036371069182389 78.77317002636097 12 78.59131468044903 C 11.3 73.49131468044904 10.9 68.29131468044903 10.9 63.19131468044904 C 10.9 59.791314680449034 11.3 56.391314680449035 12.1 53.09131468044904 C 14 43.69131468044904 17.8 34.69131468044904 23.3 26.791314680449037 C 29.1 18.891314680449035 38.2 14.191314680449036 47.9 13.991314680449037 C 47.9 13.991314680449037 48 13.991314680449037 48 13.991314680449037 L 48.1 13.991314680449037 C 57.8 14.191314680449036 66.9 18.891314680449035 72.7 26.791314680449037 C 78.2 34.69131468044904 82 43.69131468044904 83.9 53.09131468044904 C 84.7 56.391314680449035 85.1 59.791314680449034 85.1 63.19131468044904 C 85.1 68.29131468044903 84.7 73.49131468044904 84 78.59131468044903 C 83.9636289308176 78.77317002636096 83.63088781388436 79.66736817121134 83.61288461538 79.71227621890904 C 83.53465090698722 79.89310711186303 83.19015532694682 80.3908840024475 83.12283145275 80.47012286098904 C 83.09798737762574 80.50842659400605 82.23513006867422 81.29818271898438 82.15166256158 81.34851911394904 C 81.71125526246011 81.66595254506166 81.1954670437679 81.86057497128238 80.63739697802 81.93485863648904 C 80.61631719987166 81.94785193485716 80.28234536433084 81.98779591226125 80.13582511601 81.98716734865904 C 79.89776951204183 82.016132094432 79.65149845320963 82.01417817619537 79.4 81.99131468044904 L 72 81.99131468044904 C 69.9 81.99131468044904 67.8 81.19131468044904 66.3 79.69131468044904 C 64.8 78.19131468044904 64 76.09131468044903 64 73.99131468044904 L 64 65.99131468044904 C 64 63.89131468044904 64.8 61.791314680449034 66.3 60.291314680449034 C 67.8 58.791314680449034 69.9 57.99131468044904 72 57.99131468044904 L 76.72784996358 57.99131468044904 Z  M 77.053796996 65.99131468044904 C 76.96703422029093 68.65072887674516 76.76016726804757 71.32923150348594 76.45095007938 73.99131468044904 L 72 73.99131468044904 L 72 65.99131468044904 L 77.053796996 65.99131468044904 Z  M 18.946203004 65.99131468044904 C 19.03296577970907 68.65072887674516 19.23983273195243 71.32923150348594 19.54904992062 73.99131468044904 L 24 73.99131468044904 L 24 65.99131468044904 L 18.946203004 65.99131468044904 Z " fill-rule="evenodd" fill="#454545" stroke="none"/><mask id="_mask_ID7zNRLr7UGIj1P2mCHlrEF98HQ8ZjHD"><path d=" M 76.72784996358 57.99131468044904 C 76.57214389026566 56.94728944692599 76.36466217692701 55.91215450573897 76.1 54.891314680449035 C 74.4 46.49131468044904 71 38.49131468044904 66.1 31.491314680449037 C 61.9 25.691314680449036 55.2 22.191314680449036 48 21.991314680449037 L 48.1 21.991314680449037 C 48.1 21.991314680449037 48 21.991314680449037 48 21.991314680449037 C 40.8 22.191314680449036 34.1 25.691314680449036 29.9 31.491314680449037 C 25 38.49131468044904 21.6 46.49131468044904 19.9 54.891314680449035 C 19.63533782307298 55.91215450573897 19.42785610973433 56.94728944692599 19.27215003642 57.99131468044904 L 24 57.99131468044904 C 26.1 57.99131468044904 28.2 58.791314680449034 29.7 60.291314680449034 C 31.2 61.791314680449034 32 63.89131468044904 32 65.99131468044904 L 32 73.99131468044904 C 32 76.09131468044903 31.2 78.19131468044904 29.7 79.69131468044904 C 28.2 81.19131468044904 26.1 81.99131468044904 24 81.99131468044904 L 16.6 81.99131468044904 C 16.348501546790374 82.01417817619537 16.10223048795817 82.016132094432 15.86417488399 81.98716734865904 C 15.717654635669174 81.98779591226125 15.383682800128321 81.94785193485717 15.36260302198 81.93485863648904 C 14.804532956231975 81.86057497128235 14.288744737539727 81.6659525450616 13.84833743842 81.34851911394904 C 13.76486993132565 81.2981827189843 12.902012622374261 80.50842659400604 12.87716854725 80.47012286098904 C 12.809844673053197 80.3908840024475 12.34796215014324 79.62378119249202 12.33107142857 79.57917182330904 C 12.25954087174131 79.43407735064199 12.036371069182389 78.77317002636097 12 78.59131468044903 C 11.3 73.49131468044904 10.9 68.29131468044903 10.9 63.19131468044904 C 10.9 59.791314680449034 11.3 56.391314680449035 12.1 53.09131468044904 C 14 43.69131468044904 17.8 34.69131468044904 23.3 26.791314680449037 C 29.1 18.891314680449035 38.2 14.191314680449036 47.9 13.991314680449037 C 47.9 13.991314680449037 48 13.991314680449037 48 13.991314680449037 L 48.1 13.991314680449037 C 57.8 14.191314680449036 66.9 18.891314680449035 72.7 26.791314680449037 C 78.2 34.69131468044904 82 43.69131468044904 83.9 53.09131468044904 C 84.7 56.391314680449035 85.1 59.791314680449034 85.1 63.19131468044904 C 85.1 68.29131468044903 84.7 73.49131468044904 84 78.59131468044903 C 83.9636289308176 78.77317002636096 83.63088781388436 79.66736817121134 83.61288461538 79.71227621890904 C 83.53465090698722 79.89310711186303 83.19015532694682 80.3908840024475 83.12283145275 80.47012286098904 C 83.09798737762574 80.50842659400605 82.23513006867422 81.29818271898438 82.15166256158 81.34851911394904 C 81.71125526246011 81.66595254506166 81.1954670437679 81.86057497128238 80.63739697802 81.93485863648904 C 80.61631719987166 81.94785193485716 80.28234536433084 81.98779591226125 80.13582511601 81.98716734865904 C 79.89776951204183 82.016132094432 79.65149845320963 82.01417817619537 79.4 81.99131468044904 L 72 81.99131468044904 C 69.9 81.99131468044904 67.8 81.19131468044904 66.3 79.69131468044904 C 64.8 78.19131468044904 64 76.09131468044903 64 73.99131468044904 L 64 65.99131468044904 C 64 63.89131468044904 64.8 61.791314680449034 66.3 60.291314680449034 C 67.8 58.791314680449034 69.9 57.99131468044904 72 57.99131468044904 L 76.72784996358 57.99131468044904 Z  M 77.053796996 65.99131468044904 C 76.96703422029093 68.65072887674516 76.76016726804757 71.32923150348594 76.45095007938 73.99131468044904 L 72 73.99131468044904 L 72 65.99131468044904 L 77.053796996 65.99131468044904 Z  M 18.946203004 65.99131468044904 C 19.03296577970907 68.65072887674516 19.23983273195243 71.32923150348594 19.54904992062 73.99131468044904 L 24 73.99131468044904 L 24 65.99131468044904 L 18.946203004 65.99131468044904 Z " fill-rule="evenodd" fill="white" stroke="none"/></mask><path d=" M 76.72784996358 57.99131468044904 C 76.57214389026566 56.94728944692599 76.36466217692701 55.91215450573897 76.1 54.891314680449035 C 74.4 46.49131468044904 71 38.49131468044904 66.1 31.491314680449037 C 61.9 25.691314680449036 55.2 22.191314680449036 48 21.991314680449037 L 48.1 21.991314680449037 C 48.1 21.991314680449037 48 21.991314680449037 48 21.991314680449037 C 40.8 22.191314680449036 34.1 25.691314680449036 29.9 31.491314680449037 C 25 38.49131468044904 21.6 46.49131468044904 19.9 54.891314680449035 C 19.63533782307298 55.91215450573897 19.42785610973433 56.94728944692599 19.27215003642 57.99131468044904 L 24 57.99131468044904 C 26.1 57.99131468044904 28.2 58.791314680449034 29.7 60.291314680449034 C 31.2 61.791314680449034 32 63.89131468044904 32 65.99131468044904 L 32 73.99131468044904 C 32 76.09131468044903 31.2 78.19131468044904 29.7 79.69131468044904 C 28.2 81.19131468044904 26.1 81.99131468044904 24 81.99131468044904 L 16.6 81.99131468044904 C 16.348501546790374 82.01417817619537 16.10223048795817 82.016132094432 15.86417488399 81.98716734865904 C 15.717654635669174 81.98779591226125 15.383682800128321 81.94785193485717 15.36260302198 81.93485863648904 C 14.804532956231975 81.86057497128235 14.288744737539727 81.6659525450616 13.84833743842 81.34851911394904 C 13.76486993132565 81.2981827189843 12.902012622374261 80.50842659400604 12.87716854725 80.47012286098904 C 12.809844673053197 80.3908840024475 12.34796215014324 79.62378119249202 12.33107142857 79.57917182330904 C 12.25954087174131 79.43407735064199 12.036371069182389 78.77317002636097 12 78.59131468044903 C 11.3 73.49131468044904 10.9 68.29131468044903 10.9 63.19131468044904 C 10.9 59.791314680449034 11.3 56.391314680449035 12.1 53.09131468044904 C 14 43.69131468044904 17.8 34.69131468044904 23.3 26.791314680449037 C 29.1 18.891314680449035 38.2 14.191314680449036 47.9 13.991314680449037 C 47.9 13.991314680449037 48 13.991314680449037 48 13.991314680449037 L 48.1 13.991314680449037 C 57.8 14.191314680449036 66.9 18.891314680449035 72.7 26.791314680449037 C 78.2 34.69131468044904 82 43.69131468044904 83.9 53.09131468044904 C 84.7 56.391314680449035 85.1 59.791314680449034 85.1 63.19131468044904 C 85.1 68.29131468044903 84.7 73.49131468044904 84 78.59131468044903 C 83.9636289308176 78.77317002636096 83.63088781388436 79.66736817121134 83.61288461538 79.71227621890904 C 83.53465090698722 79.89310711186303 83.19015532694682 80.3908840024475 83.12283145275 80.47012286098904 C 83.09798737762574 80.50842659400605 82.23513006867422 81.29818271898438 82.15166256158 81.34851911394904 C 81.71125526246011 81.66595254506166 81.1954670437679 81.86057497128238 80.63739697802 81.93485863648904 C 80.61631719987166 81.94785193485716 80.28234536433084 81.98779591226125 80.13582511601 81.98716734865904 C 79.89776951204183 82.016132094432 79.65149845320963 82.01417817619537 79.4 81.99131468044904 L 72 81.99131468044904 C 69.9 81.99131468044904 67.8 81.19131468044904 66.3 79.69131468044904 C 64.8 78.19131468044904 64 76.09131468044903 64 73.99131468044904 L 64 65.99131468044904 C 64 63.89131468044904 64.8 61.791314680449034 66.3 60.291314680449034 C 67.8 58.791314680449034 69.9 57.99131468044904 72 57.99131468044904 L 76.72784996358 57.99131468044904 Z  M 77.053796996 65.99131468044904 C 76.96703422029093 68.65072887674516 76.76016726804757 71.32923150348594 76.45095007938 73.99131468044904 L 72 73.99131468044904 L 72 65.99131468044904 L 77.053796996 65.99131468044904 Z  M 18.946203004 65.99131468044904 C 19.03296577970907 68.65072887674516 19.23983273195243 71.32923150348594 19.54904992062 73.99131468044904 L 24 73.99131468044904 L 24 65.99131468044904 L 18.946203004 65.99131468044904 Z " fill-rule="evenodd" fill="none" stroke="none" stroke-width="16" mask="url(#_mask_ID7zNRLr7UGIj1P2mCHlrEF98HQ8ZjHD)"/></svg>

<svg xmlns="http://www.w3.org/2000/svg" width="96" height="96"><path d="M76.728 57.991a29.958 29.958 0 0 0-.628-3.1c-1.7-8.4-5.1-16.4-10-23.4-4.2-5.8-10.9-9.3-18.1-9.5h0c-7.2.2-13.9 3.7-18.1 9.5-4.9 7-8.3 15-10 23.4a29.958 29.958 0 0 0-.628 3.1H24c2.1 0 4.2.8 5.7 2.3 1.5 1.5 2.3 3.6 2.3 5.7v8c0 2.1-.8 4.2-2.3 5.7-1.5 1.5-3.6 2.3-5.7 2.3h-7.4a3.486 3.486 0 0 1-.736-.004c-.146 0-.48-.04-.501-.052a3.315 3.315 0 0 1-1.515-.586c-.083-.05-.946-.84-.97-.879-.068-.08-.53-.846-.547-.89A8.043 8.043 0 0 1 12 78.59c-.7-5.1-1.1-10.3-1.1-15.4 0-3.4.4-6.8 1.2-10.1 1.9-9.4 5.7-18.4 11.2-26.3 5.8-7.9 14.9-12.6 24.6-12.8h.2c9.7.2 18.8 4.9 24.6 12.8 5.5 7.9 9.3 16.9 11.2 26.3.8 3.3 1.2 6.7 1.2 10.1 0 5.1-.4 10.3-1.1 15.4-.036.182-.37 1.076-.387 1.121-.078.181-.423.679-.49.758-.025.038-.888.828-.971.879-.44.317-.957.512-1.515.586a3.09 3.09 0 0 1-.501.052 3.486 3.486 0 0 1-.736.004H72c-2.1 0-4.2-.8-5.7-2.3-1.5-1.5-2.3-3.6-2.3-5.7v-8c0-2.1.8-4.2 2.3-5.7 1.5-1.5 3.6-2.3 5.7-2.3h4.728zm.326 8a96.847 96.847 0 0 1-.603 8H72v-8h5.054zm-58.108 0c.087 2.66.294 5.338.603 8H24v-8h-5.054z" fill-rule="evenodd" fill="#454545"/></svg>
